X:1
T:Slovenia, LMD
T:Slovenia, LMD
T:William J. Stevenson, 1880
T:Public Domain Courtesy of the Cyber Hymnal™
C:William J. Stevenson, 1880
Z:Public Domain
Z:Courtesy of the Cyber Hymnal™
%%score ( 1 2 ) ( 3 4 )
L:1/8
Q:1/4=100
M:6/8
K:Eb
V:1 treble 
V:2 treble 
V:3 bass 
V:4 bass 
V:1
 E | [EG]2 [EG] [EG]2 [EB] | [Ec]2 [EB] [EG]3 | [DF][EG][FA] [EG]2 z | [DF][EG][DF] E2 E | %5
 [EG]2 [EG] [EG]2 [EB] | [Ec]2 [EB] [EG]3 | [DF][EG][FA] [EG]2 z | [DF][EG][DF] E2 [EB] | %9
 [Ec]2 [Ec] [EA]2 [Ec] | [EB]2 [EB] [EG]2 [EB] | [DB]2 [DB] [DF]2 [FB] | [Fd]2 [Ec] [DB]2 [FA] | %13
 [EG]2 [EG] [EG]2 [GB] | [Ac]2 [GB] [EG]2 z | [DF][EG][FA] [EG]2 z | [DF][DG][DF] E2 |] %17
V:2
 E | x6 | x6 | x6 | x3 E2 E | x6 | x6 | x6 | x3 E2 x | x6 | x6 | x6 | x6 | x6 | x6 | x6 | x3 E2 |] %17
V:3
 [E,G,] | [E,B,]2 [E,B,] [E,B,]2 [E,G,] | [E,A,]2 [E,G,] [E,B,]3 | %3
 [B,,B,][B,,B,][B,,B,] [E,B,]2 z | [B,,B,][B,,B,][B,,B,] [E,G,]2 [E,G,] | %5
 [E,B,]2 [E,B,] [E,B,]2 [E,G,] | [E,A,]2 [E,G,] [E,B,]3 | [B,,B,][B,,B,][B,,B,] [E,B,]2 z | %8
 [B,,B,][B,,B,][B,,B,] [E,G,]2 [E,G,] | A,2 A, [A,C]2 A, | [E,G,]2 [E,G,] [E,B,]2 [E,G,] | %11
 [B,,F,]2 [B,,F,] [B,,B,]2 [D,B,] | [F,B,]2 [F,=A,] [B,,B,]2 [B,,B,] | %13
 [E,B,]2 [E,B,] [E,B,]2 [E,E] | [E,E]2 [E,E] [E,B,]2 z | [B,,B,][B,,B,][B,,B,] [E,B,]2 z | %16
 [B,,B,][B,,B,][B,,B,] [E,G,]2 |] %17
V:4
 x | x6 | x6 | x6 | x6 | x6 | x6 | x6 | x6 | A,2 A, x A, x | x6 | x6 | x6 | x6 | x6 | x6 | x5 |] %17

